icons/hdd-24-24.svg

<svg width="24" height="24" viewBox="0 0 24 24" fill="none" xmlns="http://www.w3.org/2000/svg">
<g clip-path="url(#clip0_0_40)">
<circle cx="18.25" cy="19.75" r="0.75" fill="#1F2328"/>
<path d="M4.5 1H19.5C20.6046 1 21.5 1.89543 21.5 3V15.25C21.5 15.6642 21.1642 16 20.75 16C20.3358 16 20 15.6642 20 15.25V3C20 2.72386 19.7761 2.5 19.5 2.5H4.5C4.22386 2.5 4 2.72386 4 3V15.25C4 15.6642 3.66421 16 3.25 16C2.83579 16 2.5 15.6642 2.5 15.25V3C2.5 1.89543 3.39543 1 4.5 1Z" fill="#1F2328"/>
<path fill-rule="evenodd" clip-rule="evenodd" d="M4.5 16.5H19.5C20.6046 16.5 21.5 17.3954 21.5 18.5V21C21.5 22.1046 20.6046 23 19.5 23H4.5C3.39543 23 2.5 22.1046 2.5 21V18.5C2.5 17.3954 3.39543 16.5 4.5 16.5ZM4.5 18C4.22386 18 4 18.2239 4 18.5V21C4 21.2761 4.22386 21.5 4.5 21.5H19.5C19.7761 21.5 20 21.2761 20 21V18.5C20 18.2239 19.7761 18 19.5 18H4.5Z" fill="#1F2328"/>
</g>
<defs>
<clipPath id="clip0_0_40">
<rect width="24" height="24" fill="white"/>
</clipPath>
</defs>
</svg>

<svg xmlns="http://www.w3.org/2000/svg" width="24" height="24" viewBox="0 0 24 24"><path d="M19 19.75a.75.75 0 1 1-1.5 0 .75.75 0 0 1 1.5 0ZM4.5 1h15a2 2 0 0 1 2 2v12.25a.75.75 0 0 1-1.5 0V3a.5.5 0 0 0-.5-.5h-15A.5.5 0 0 0 4 3v12.25a.75.75 0 0 1-1.5 0V3a2 2 0 0 1 2-2Z"/><path d="M4.5 16.5h15a2 2 0 0 1 2 2V21a2 2 0 0 1-2 2h-15a2 2 0 0 1-2-2v-2.5a2 2 0 0 1 2-2Zm0 1.5a.5.5 0 0 0-.5.5V21a.5.5 0 0 0 .5.5h15a.5.5 0 0 0 .5-.5v-2.5a.5.5 0 0 0-.5-.5Z"/></svg>
